packages/foundations/assets/icons/functional/images/technology/speedometer_24_filled.svg

<svg xmlns="http://www.w3.org/2000/svg" width="20" height="20" fill="none"><path fill="#1A1C1F" fill-rule="evenodd" d="M9.3 3.035a8.6 8.6 0 0 0-2.025.451 9 9 0 0 0-2.258 1.281 10 10 0 0 0-1.25 1.25c-1.929 2.43-2.31 5.66-.979 8.299.441.877 1.258 1.904 1.942 2.445.323.255-.04.239 5.27.239 5.313 0 4.946.017 5.273-.241.253-.199.772-.729 1.038-1.06q1.593-1.979 1.679-4.432c.066-1.891-.549-3.729-1.757-5.25a10 10 0 0 0-1.25-1.25 9 9 0 0 0-2.258-1.281A8.2 8.2 0 0 0 9.3 3.035m4.543 3.532c.398.149.64.496.64.916 0 .446.016.426-1.338 1.785l-1.213 1.218.034.178c.118.622-.089 1.261-.562 1.735a1.83 1.83 0 0 1-.924.535c-.47.12-.981.058-1.424-.173-.3-.157-.682-.551-.835-.863-.391-.796-.247-1.678.376-2.301.473-.473 1.117-.681 1.739-.563l.178.034 1.202-1.197c1.119-1.116 1.297-1.273 1.517-1.34.157-.048.429-.032.61.036"/></svg>

<svg width="20" height="20" viewBox="0 0 20 20" fill="none" xmlns="http://www.w3.org/2000/svg"><path d="M9.300 3.035 C 8.653 3.093,7.858 3.270,7.275 3.486 C 6.540 3.758,5.656 4.259,5.017 4.767 C 4.674 5.038,4.038 5.674,3.767 6.017 C 1.838 8.447,1.457 11.677,2.788 14.316 C 3.229 15.193,4.046 16.220,4.730 16.761 C 5.053 17.016,4.690 17.000,10.000 17.000 C 15.313 17.000,14.946 17.017,15.273 16.759 C 15.526 16.560,16.045 16.030,16.311 15.699 C 17.373 14.380,17.932 12.902,17.990 11.267 C 18.056 9.376,17.441 7.538,16.233 6.017 C 15.962 5.674,15.326 5.038,14.983 4.767 C 14.344 4.259,13.460 3.758,12.725 3.486 C 11.684 3.101,10.419 2.934,9.300 3.035 M13.843 6.567 C 14.241 6.716,14.483 7.063,14.483 7.483 C 14.483 7.929,14.499 7.909,13.145 9.268 L 11.932 10.486 11.966 10.664 C 12.084 11.286,11.877 11.925,11.404 12.399 C 11.113 12.690,10.859 12.837,10.480 12.934 C 10.010 13.054,9.499 12.992,9.056 12.761 C 8.756 12.604,8.374 12.210,8.221 11.898 C 7.830 11.102,7.974 10.220,8.597 9.597 C 9.070 9.124,9.714 8.916,10.336 9.034 L 10.514 9.068 11.716 7.871 C 12.835 6.755,13.013 6.598,13.233 6.531 C 13.390 6.483,13.662 6.499,13.843 6.567 " fill="#1A1C1F" stroke="none" fill-rule="evenodd"></path></svg>
